X: 142
T: No_67_Divorce_Song.krn
%%abc-version 2.0
%%abcx-abcm2ps-target-version 5.9.1 (29 Sep 2008)
%%abc-creator hum2abc beta
%%abcx-conversion-date 2020/08/10 18:54:57
%%gracespace 0 6 6
%%humdrum-veritas 2490666998
%%humdrum-veritas-data 3221790944
%%linebreak <none>
%%barnumbers 0
L: 1/8
M: 2/4
%%staves {1 2}
V: 1 clef=treble
V: 2 clef=bass
K: Eb
[V:1] FF [I:setbarnb 1]| 
[V:2] z2 | 
[V:1] G2(3GFE | 
[V:2] G,,G,, G,,G,, | 
[V:1] E3E ||  
[V:2] G,,G,, G,,G,, ||  
[V:1] [M:3/4]E2B,2F2 ||  
[V:2] [M:3/4]z6 ||  
[V:1] [M:2/4]G2(3GFE | 
[V:2] [M:2/4]z4 | 
[V:1] E3E | 
[V:2] z4 | 
[V:1] E4 | 
[V:2] z4 | 
[V:1] E2E2 ||  
[V:2] z4 ||  
[V:1] [M:3/4]EB,- B,>E B,3/B,/ ||  
[V:2] [M:3/4]z6 ||  
[V:1] [M:2/4]A,4 | 
[V:2] [M:2/4]z4 | 
[V:1] B,B,A,2[K:clef=bass] | 
[V:2] z4 | 
[V:1]  [K:Gb] A,2(3A,G,E, | 
[V:2]  [K:Gb] z4 | 
[V:1] E,3E, | 
[V:2] z4 | 
[V:1] E,4 ||  
[V:2] z4 ||  
[V:1] [M:3/4]G,2G,2A,G, ||  
[V:2] [M:3/4]z6 ||  
[V:1] [M:2/4]E,3E, | 
[V:2] [M:2/4]z4 | 
[V:1] E,4- | 
[V:2] z4 | 
[V:1] E,4[K:clef=treble] | 
[V:2] z4 | 
[V:1] E2E2 | 
[V:2] z4 | 
[V:1] E2E3/=G//F// | 
[V:2] z4 | 
[V:1] E2E/B,3/- | 
[V:2] z4 | 
[V:1] B,>E B,3/B,/ | 
[V:2] z4 | 
[V:1] A,4[K:clef=bass] | 
[V:2] z4 | 
[V:1] B,B,A,2 | 
[V:2] z4 | 
[V:1] A,2(3A,G,E, | 
[V:2] z4 | 
[V:1] E,3E, | 
[V:2] z4 | 
[V:1] E,4 ||  
[V:2] z4 ||  
[V:1] [M:3/4]G,2G,2A,G, ||  
[V:2] [M:3/4]z6 ||  
[V:1] [M:2/4]E,3E, | 
[V:2] [M:2/4]z4 | 
[V:1] E,4- | 
[V:2] z4 | 
[V:1] E,2z2 |]  
[V:2] z4 |]  


